X:68
T:Tit bitt, The
M:2/4
L:1/8
B:Thompson's Compleat Collection of 200 Favourite Country Dances, vol. 2 (London, 1765)
Z:Transcribed and edited by Flynn Titford-Mock, 2007
Z:abc's:AK/Fiddler's Companion
K:G
G2 BG | BGEB | G2 BG | AFDA | G2 BG | BGEB | cecA | FDFA :|
|: G2 gf | gGGB | Gggf | aAAB | G2 gf | gbge | cecA | FDFA :|

